X:1
T:Jack Robinson
M:4/4
R:Reel
L:1/8
K:Gmaj
D2 G2 D2 BB | c2 c2 A4 | FG A2 FG A2 | GBd^c d6/2 d | edce d2 B2 |
cBAB A2 G2 | D2 G2 FGAB |1 A2 G2 G2 E2 :|2 A2 G2 G2 Bc ||
d2 B2 cd e2 | e2 A2 A2 Bc | d2 B2 cd e2 | edcB AcBA | GABc d2 B2 |
cBAB A2 G2 | D2 G2 FGAB |1 A2 G2 G2 Bc :|2 A2 G2 G3/2 E ||
